X:7281
T:The Road to Corofin
O:england
R:Reel
S:Deirdre Shannon, Belfast (fiddle)
C:Jim McKillop
D:Session tape - Crossgar, Down 1978
N:As played
M:4/4
K:D
d2Ad BAFE | DB,A,B, DEFA | d2Ad fded | cAGB {d}BAFA |
(3.d.d.dfd efag | (3.f.f.fed cAag | (3.f.f.fed cAGE | {G}EDCE D4 ::
d2Ad fdef | gbed cAGE | {G}EDFA dfed | cAGE {G}EDFA |
DEFA dfaf | gbed ceag | (3.f.g.fed cAGE | {G}EDCE D4 :|
